icons/1_Primary/niconico.svg

<svg xmlns="http://www.w3.org/2000/svg" viewBox="0 0 1024 1024">
   <circle cx="512" cy="512" r="512"/>
   <path d="M697.4 367.1H547.5l86.8-86.8-21.5-21.5-100.4 100.4-101.9-100.4-21.5 21.5 86.1 86.1H327.3c-22.3-.4-40.6 17.8-40.2 40.2v236c0 21.8 17.7 39.4 39.4 39.4h46.6l25.8 40.9c1.7 2.7 4.7 4.3 7.9 4.3 3.5.3 6.8-1.4 8.6-4.3l25.8-40.9h136.3l25.8 40.9c1.9 2.9 5.2 4.6 8.6 4.3 3.6 0 6.4-1.5 7.9-4.3l25.8-40.9h51.6c21.8 0 39.4-17.7 39.4-39.4V405.8c-.1-21.4-17.7-38.7-39.2-38.7z" style="fill:#fff"/>
</svg>

<svg width="1024" height="1024" viewBox="0 0 1024 1024" fill="none" xmlns="http://www.w3.org/2000/svg">
<g clip-path="url(#clip0_2_2937)">
<path d="M512 1024C794.77 1024 1024 794.77 1024 512C1024 229.23 794.77 0 512 0C229.23 0 0 229.23 0 512C0 794.77 229.23 1024 512 1024Z" fill="#56595B"/>
<path d="M697.4 367.1H547.5L634.3 280.3L612.8 258.8L512.4 359.2L410.5 258.8L389 280.3L475.1 366.4H327.3C305 366 286.7 384.2 287.1 406.6V642.6C287.1 664.4 304.8 682 326.5 682H373.1L398.9 722.9C400.6 725.6 403.6 727.2 406.8 727.2C410.3 727.5 413.6 725.8 415.4 722.9L441.2 682H577.5L603.3 722.9C605.2 725.8 608.5 727.5 611.9 727.2C615.5 727.2 618.3 725.7 619.8 722.9L645.6 682H697.2C719 682 736.6 664.3 736.6 642.6V405.8C736.5 384.4 718.9 367.1 697.4 367.1Z" fill="white"/>
</g>
<defs>
<clipPath id="clip0_2_2937">
<rect width="1024" height="1024" fill="white"/>
</clipPath>
</defs>
</svg>
